icons/1_Primary/LunaNode.svg

<svg xmlns="http://www.w3.org/2000/svg" width="1024" height="1024" fill="none">
   <g clip-path="url(#a)">
      <path fill="#728DBE" d="M512 1024c282.77 0 512-229.23 512-512S794.77 0 512 0 0 229.23 0 512s229.23 512 512 512Z"/>
      <path fill="#fff" d="M487.26 256a89591.582 89591.582 0 0 0-197.45 204.73c-16.47 17-28.19 38.83-32.42 62.18 0 .54-.08 1.07-.1 1.61l-1.3-2.35V494a248.275 248.275 0 0 1 228.74-238h2.53ZM672 597.75a45.438 45.438 0 0 0-8.21-58.17c-6.72-6-12.51-13.38-20.73-17.5a45.635 45.635 0 0 0-46 2.2c-3.9 2.41-7.05 5.76-10.23 9-30 31.21-60.12 62.28-90.07 93.53a15648.651 15648.651 0 0 1-56.74-54.66c31.77-32.72 63.3-65.67 95-98.44a124.051 124.051 0 0 1 156.19-14.4c10.35 6.79 18.93 15.77 27.81 24.29a124.77 124.77 0 0 1 31.64 48.46c1.76-12.75 1.13-25.63 1.24-38.45a147.883 147.883 0 0 0-1.1-17.56 246.556 246.556 0 0 0-30.35-94.32c-29.54-52.7-79-94-136.29-113.2-18 19-36.29 37.68-54.39 56.56A382794.242 382794.242 0 0 0 346.51 515.2a45.135 45.135 0 0 0-12.69 36.56 44.28 44.28 0 0 0 12.75 26.87c4.19 4.19 8.52 8.24 12.77 12.36A44.363 44.363 0 0 0 391 603.48a45.268 45.268 0 0 0 31.93-13.25c18.9 18.13 37.68 36.38 56.6 54.49-22.79 23.83-55.57 37.58-88.51 37.51a123.545 123.545 0 0 1-82-30.72c-4.09-3.42-7.54-7.51-11.71-10.83a247.619 247.619 0 0 0 227.07 110.26 2.991 2.991 0 0 0 2.36-1.1c44.234-46 88.504-91.94 132.81-137.82 4.3-4.63 9.17-8.84 12.45-14.27Zm79.84 13.54A123.118 123.118 0 0 1 733 647.84c-6.85 9.19-15.31 17-23.11 25.32-25.41 26.23-50.6 52.69-76.13 78.81H752c-.09-46.9.09-93.79-.12-140.69l-.04.01Z"/>
   </g>
   <defs>
      <clipPath id="a">
         <path fill="#fff" d="M0 0h1024v1024H0z"/>
      </clipPath>
   </defs>
</svg>

<svg width="1024" height="1024" viewBox="0 0 1024 1024" fill="none" xmlns="http://www.w3.org/2000/svg">
<g clip-path="url(#clip0_2_2709)">
<path d="M512 1024C794.77 1024 1024 794.77 1024 512C1024 229.23 794.77 0 512 0C229.23 0 0 229.23 0 512C0 794.77 229.23 1024 512 1024Z" fill="#728DBE"/>
<path d="M487.26 256C421.34 324.133 355.524 392.377 289.81 460.73C273.34 477.73 261.62 499.56 257.39 522.91C257.39 523.45 257.31 523.98 257.29 524.52L255.99 522.17V494C258.323 433.19 282.908 375.354 325.077 331.478C367.246 287.602 424.06 260.742 484.73 256H487.26ZM672 597.75C677.739 588.651 680.063 577.812 678.56 567.16C677.056 556.508 671.823 546.735 663.79 539.58C657.07 533.58 651.28 526.2 643.06 522.08C635.886 518.335 627.846 516.565 619.762 516.951C611.679 517.338 603.844 519.867 597.06 524.28C593.16 526.69 590.01 530.04 586.83 533.28C556.83 564.49 526.71 595.56 496.76 626.81C477.8 608.637 458.887 590.417 440.02 572.15C471.79 539.43 503.32 506.48 535.02 473.71C555.411 453.685 582.091 441.315 610.55 438.691C639.009 436.067 667.502 443.351 691.21 459.31C701.56 466.1 710.14 475.08 719.02 483.6C733.219 497.05 744.057 513.65 750.66 532.06C752.42 519.31 751.79 506.43 751.9 493.61C751.882 487.74 751.515 481.876 750.8 476.05C747.17 442.88 736.845 410.793 720.45 381.73C690.91 329.03 641.45 287.73 584.16 268.53C566.16 287.53 547.87 306.21 529.77 325.09C468.677 388.423 407.59 451.793 346.51 515.2C341.817 519.972 338.243 525.728 336.049 532.051C333.854 538.374 333.093 545.106 333.82 551.76C334.845 561.919 339.349 571.411 346.57 578.63C350.76 582.82 355.09 586.87 359.34 590.99C363.535 595.054 368.491 598.249 373.924 600.393C379.358 602.536 385.161 603.585 391 603.48C402.977 603.461 414.459 598.697 422.93 590.23C441.83 608.36 460.61 626.61 479.53 644.72C456.74 668.55 423.96 682.3 391.02 682.23C360.853 682.345 331.686 671.418 309.02 651.51C304.93 648.09 301.48 644 297.31 640.68C321.794 677.732 355.791 707.518 395.741 726.916C435.69 746.315 480.122 754.613 524.38 750.94C524.831 750.946 525.277 750.85 525.686 750.659C526.094 750.469 526.455 750.189 526.74 749.84C570.974 703.84 615.244 657.9 659.55 612.02C663.85 607.39 668.72 603.18 672 597.75ZM751.84 611.29C747.653 624.443 741.285 636.799 733 647.84C726.15 657.03 717.69 664.84 709.89 673.16C684.48 699.39 659.29 725.85 633.76 751.97H752C751.91 705.07 752.09 658.18 751.88 611.28L751.84 611.29Z" fill="white"/>
</g>
<defs>
<clipPath id="clip0_2_2709">
<rect width="1024" height="1024" fill="white"/>
</clipPath>
</defs>
</svg>
